X:32
T:The Earl's Chair
Z:Gwen 2020-02-12 d'après Benoît Volant (https://www.youtube.com/watch?v=RL6To80Nzxc)
M:2/2
R:Reel
K:Bm
|: B2dB BAFA | B2dB BAFB | AFF/F/F DFF/F/F | AFdB ADFA |
   B2dB BAFA | B2dB BAFB | AFAB defd |1 edef d2cA :|2 edef d2Bd |
|: e3f d3f | edef dBAB | edef d3f | fedB A2Bd |
   e3f eBB/B/B | gBB/B/B defg | afbf afeg |1 fedB A2Bd :|2 fedB A2FA ||

